svgs/sharp-solid/code-merge.svg

<svg xmlns="http://www.w3.org/2000/svg" viewBox="0 0 448 512"><!--! Font Awesome Pro 6.6.0 by @fontawesome - https://fontawesome.com License - https://fontawesome.com/license (Commercial License) Copyright 2024 Fonticons, Inc. --><path d="M104 56l0 48-48 0 0-48 48 0zM56 0L0 0 0 56l0 48 0 56 48 0 0 192L0 352l0 56 0 48 0 56 56 0 48 0 56 0 0-56 0-48 0-56-48 0 0-80c26.7 20.1 60 32 96 32l80 0 0 48 56 0 48 0 56 0 0-56 0-48 0-56-56 0-48 0-56 0 0 48-80 0c-47.6 0-87.1-34.6-94.7-80l46.7 0 0-56 0-48 0-56L104 0 56 0zm48 408l0 48-48 0 0-48 48 0zM344 248l48 0 0 48-48 0 0-48z"/></svg>

<svg xmlns="http://www.w3.org/2000/svg" viewBox="0 0 448 512"><!--! Font Awesome Pro 6.4.0 by @fontawesome - https://fontawesome.com License - https://fontawesome.com/license (Commercial License) Copyright 2023 Fonticons, Inc. --><path d="M104 56v48H56V56h48zM56 0H0V56v48 56H48V352H0v56 48 56H56h48 56V456 408 352H112V272c26.7 20.1 60 32 96 32h80v48h56 48 56V296 248 192H392 344 288v48H208c-47.6 0-87.1-34.6-94.7-80H160V104 56 0H104 56zm48 408v48H56V408h48zM344 248h48v48H344V248z"/></svg>
